X:114
T:Dans le port il est arriv
C:trad
A:Haute Bretagne
O:France
Z:S Piron
M:2/4
L:1/8
Q:1/4=120
K:G
DD/2G/2|GD DB|B2 Bc/2A/2|FD EF|
G2DD/2G/2|GD DB|B2 Bc/2A/2|FD EF|
G2 AA/2d/2|d^c cB|B2GG/2B/2|BA AF|D2 DG|
GF/2E/2 DB|B2Bc/2A/2|FD EF|GF/2E/2 DG|
GF/2E/2 DB|B2cA|FF/2D/2 EF|G2 z2||
W:
W:Dans le port il est arriv
W:Dans le port il est arriv
W:Un navire en cuivre doubl
W:Un navire en cuivre doubl
W:Que personne n'a visit
W:Que la fille d'un conseiller.
W:refrain :
W:Par ma foi j'donn'rai bien cinq sous
W:Pour passer la barque avec elle
W:Par ma foi j'donn'rai bien cinq sous
W:Pour passer la barque avec vous
W:
W:Que personne n'a visit
W:Que la fille d'un conseiller.
W:Dans un canot ayant saut,
W:Elle dit: Nage  aborder
